packages/foundations/assets/icons/functional/images/layout/zoom_in_20.svg

<svg width="20" height="20" viewBox="0 0 20 20" fill="none" xmlns="http://www.w3.org/2000/svg">
<g clip-path="url(#clip0_185_1520)">
<path fill-rule="evenodd" clip-rule="evenodd" d="M9 2C12.8699 2 16 5.13008 16 9C16 10.5935 15.4634 12.0163 14.6179 13.187L17.7073 16.2764C17.9024 16.4715 18 16.7317 18 16.9919C18 17.5447 17.5447 18 17.0244 18C16.7642 18 16.5366 17.9024 16.2764 17.7073L13.187 14.6179C12.0163 15.4959 10.561 16 9 16C5.13008 16 2 12.8699 2 9C2 5.13008 5.13008 2 9 2ZM8.99187 4.01626C6.22764 4.01626 4.01626 6.22764 4.01626 8.99187C4.01626 11.7561 6.22764 14 8.99187 14C11.7561 14 14 11.7561 14 8.99187C14 6.22764 11.7561 4.01626 8.99187 4.01626ZM10 6H8V8H6V10H8V12L10 12.0163V10H12V8H10V6Z" fill="#1A1C1F"/>
</g>
<defs>
<clipPath id="clip0_185_1520">
<rect width="20" height="20" fill="white"/>
</clipPath>
</defs>
</svg>

<svg xmlns="http://www.w3.org/2000/svg" width="20" height="20" fill="none"><g clip-path="url(#a)"><path fill="#1A1C1F" fill-rule="evenodd" d="M9 2c3.87 0 7 3.13 7 7 0 1.594-.537 3.016-1.382 4.187l3.09 3.09c.194.194.292.455.292.715 0 .553-.455 1.008-.976 1.008-.26 0-.487-.098-.748-.293l-3.089-3.09A6.96 6.96 0 0 1 9 16c-3.87 0-7-3.13-7-7s3.13-7 7-7m-.008 2.016a4.955 4.955 0 0 0-4.976 4.976C4.016 11.756 6.228 14 8.992 14A5.01 5.01 0 0 0 14 8.992c0-2.764-2.244-4.976-5.008-4.976M10 6H8v2H6v2h2v2l2 .016V10h2V8h-2z" clip-rule="evenodd"/></g><defs><clipPath id="a"><path fill="#fff" d="M0 0h20v20H0z"/></clipPath></defs></svg>
